img/ph_student-fill.svg

<svg width="60" height="60" viewBox="0 0 60 60" fill="none" xmlns="http://www.w3.org/2000/svg">
<g id="ph:student-fill">
<path id="Vector" d="M53.093 13.2211L30.593 5.72108C30.2081 5.59277 29.7919 5.59277 29.407 5.72108L6.90703 13.2211C6.53368 13.3455 6.20896 13.5843 5.97887 13.9036C5.74877 14.2229 5.62497 14.6064 5.625 15V33.75C5.625 34.2473 5.82254 34.7242 6.17417 35.0758C6.52581 35.4274 7.00272 35.625 7.5 35.625C7.99728 35.625 8.47419 35.4274 8.82582 35.0758C9.17746 34.7242 9.375 34.2473 9.375 33.75V17.6015L17.2477 20.2242C15.156 23.6034 14.4909 27.6746 15.3983 31.5438C16.3057 35.413 18.7115 38.764 22.0875 40.8609C17.8687 42.5156 14.2219 45.5086 11.5547 49.6008C11.416 49.8069 11.3196 50.0386 11.2712 50.2823C11.2228 50.5261 11.2234 50.777 11.2728 51.0205C11.3223 51.264 11.4196 51.4953 11.5592 51.7008C11.6988 51.9064 11.8779 52.0822 12.086 52.2179C12.2941 52.3537 12.5272 52.4467 12.7716 52.4916C13.016 52.5365 13.2669 52.5324 13.5096 52.4794C13.7524 52.4265 13.9823 52.3259 14.1858 52.1833C14.3894 52.0408 14.5626 51.8592 14.6953 51.6492C18.2273 46.2305 23.8055 43.125 30 43.125C36.1945 43.125 41.7727 46.2305 45.3047 51.6492C45.5797 52.0579 46.0045 52.342 46.4873 52.44C46.9701 52.538 47.472 52.4421 47.8847 52.173C48.2973 51.9039 48.5874 51.4832 48.6923 51.0018C48.7972 50.5205 48.7085 50.0172 48.4453 49.6008C45.7781 45.5086 42.1172 42.5156 37.9125 40.8609C41.2852 38.7641 43.6888 35.4153 44.596 31.5489C45.5033 27.6825 44.8403 23.6142 42.7523 20.2359L53.093 16.7906C53.4664 16.6662 53.7912 16.4275 54.0214 16.1082C54.2516 15.7889 54.3754 15.4053 54.3754 15.0117C54.3754 14.6181 54.2516 14.2345 54.0214 13.9152C53.7912 13.5959 53.4664 13.3572 53.093 13.2328V13.2211ZM41.25 28.125C41.2505 29.9036 40.8293 31.6569 40.021 33.2412C39.2126 34.8254 38.0402 36.1955 36.5998 37.2389C35.1595 38.2823 33.4923 38.9693 31.735 39.2436C29.9777 39.5179 28.1804 39.3716 26.4906 38.8168C24.8008 38.262 23.2666 37.3144 22.0139 36.0518C20.7612 34.7893 19.8257 33.2477 19.2842 31.5536C18.7426 29.8595 18.6105 28.0611 18.8986 26.306C19.1866 24.5509 19.8867 22.8891 20.9414 21.457L29.407 24.2695C29.7919 24.3978 30.2081 24.3978 30.593 24.2695L39.0586 21.457C40.4829 23.3883 41.251 25.7252 41.25 28.125Z" fill="white"/>
</g>
</svg>

<svg xmlns="http://www.w3.org/2000/svg" width="60" height="60" fill="none"><path fill="#fff" d="m53.093 13.221-22.5-7.5a1.88 1.88 0 0 0-1.186 0l-22.5 7.5A1.87 1.87 0 0 0 5.625 15v18.75a1.875 1.875 0 1 0 3.75 0V17.602l7.873 2.622a15 15 0 0 0 4.84 20.637c-4.22 1.655-7.866 4.648-10.533 8.74a1.875 1.875 0 1 0 3.14 2.048c3.532-5.419 9.11-8.524 15.305-8.524 6.194 0 11.773 3.105 15.305 8.524a1.875 1.875 0 0 0 3.14-2.048c-2.667-4.092-6.328-7.085-10.532-8.74a15 15 0 0 0 4.84-20.625l10.34-3.445a1.875 1.875 0 0 0 0-3.558zM41.25 28.125a11.25 11.25 0 1 1-20.309-6.668l8.466 2.813c.385.128.801.128 1.186 0l8.466-2.813a11.23 11.23 0 0 1 2.191 6.668"/></svg>
